X:1
T:James Gibb editions
T:O Father blest, thy name we sing - Barnby
%%score 1 { ( 2 3 ) | ( 4 5 ) }
L:1/8
Q:1/4=84
M:4/4
K:Eb
V:1 treble nm="Midi_74"
V:2 treble nm="Midi_20"
V:3 treble 
V:4 bass 
V:5 bass 
V:1
!mf!"^87. 87. 88""^O Father blest, thy name we sing""^Joseph Barnby\n(1838-96)""^Arthur Tozer Russell\n(1806-74)" G2 | %1
w: O|
w: O|
 B2 F2 F2 G2 | A3 B G2 || G2 | G2 c2 e2 d2 | c4 B2 ||[M:4/4]!mf! G2 | B2 F2 F2 G2 | A3 B G2 || G2 | %10
w: Fa- ther blest, Thy|name we sing,|Whose|power the world up-|hold- eth;|And|Thee, O Christ, of|kings the King,|Whose|
w: Fa- ther, Son, and|Ho- ly Ghost,|The|God of our sal-|va- tion,|The|church on earth, and|heaven- ly host,|Are|
 G2 c2 d2 c2 | =A4 B2 || B2 | c2 F2 F2 G2 | B3 A G2 ||!p! G2 | G2 B2 A2 G2 | G4 F4 | E4 || A4 G4 |] %20
w: love our souls en-|fold- eth;|And|Thee, O Ho- ly|Ghost, we praise,|O|be our guide through|all our|days.||
w: one in a- do-|ra- tion.|With|heart and mind, may|we a- dore|our|gra- cious God for|e- ver-|more.|A- men.|
V:2
 [EG]2 | F6 E2- | [CE]2 [DF]2 [EG]2 || [FG]2 | G4 F4 | [B,EG]2- [CE=A]2 [DB]2 ||[M:4/4]!mf! [EG]2 | %7
 [DF]6 E2- | [CE]2 [DF]2 [EG]2 || [DF]2 | E2 G2 F2 E2 | E4 [B,D]2 || [DF]2 | [DF]6 E2 | %14
 [CE]2 D2 E2 ||!p! F2 | [C=E]4 [CF]2 [C_E]2 | E6 D2 | E4 || [EA]4 [EG]4 |] %20
V:3
 x2 | x6 x2 | x2 x2 x2 || x2 | [CE]6 [B,D]2- | x2 x2 x2 ||[M:4/4] x2 | x2 x2 x2 x2 | x2 x2 x2 || %9
 x2 | C3 !courtesy!_B, =A,4 | C4 x2 || x2 | x8 | x6 || x2 | x8 | x8 | x4 || x8 |] %20
V:4
!mf! [E,B,]2 | [E,A,B,]6 [E,G,B,]2 | F,2 B,2 B,2 || =B,2 | C,2 B,,2 =A,,2 B,,2 | F,,4 [B,,F,]2 || %6
[M:4/4] E,2 | [E,A,B,]6 [E,G,B,]2 | F,2 B,2 B,2 || =B,,2 | C,2 E,2 F,4 | F,6 || B,2 | %13
 [B,,!courtesy!_A,]6 G,2 | F,2 B,4 ||!p! =B,2 | C2 G,2 [F,A,]2 A,,2 | B,2 G,2 A,4 | G,4 || %19
 C4 B,4 |] %20
V:5
 x2 | x2 x2 x2 x2 | E,4 E,2 || D,2 | x2 x2 x2 x2 | x2 x2 x2 ||[M:4/4] x2 | x2 x2 x2 x2 | E,4 E,2 || %9
 x2 | x2 x2 x2 x2 | B,,6 || x2 | x2 x2 x2 x2 | B,,4 E,2 || D,2 | C,4 x2 x2 | B,,6 B,,2 | E,4 || %19
 A,,4 E,4 |] %20

